assets/icons/calendar/warning.svg

<?xml version="1.0" encoding="UTF-8" standalone="no"?>
<svg
   viewBox="0 0 24 24"
   height="24"
   id="svg7384"
   version="1.1"
   width="24"
   sodipodi:docname="warning.svg"
   inkscape:version="1.2 (1:1.2.1+202207142221+cd75a1ee6d)"
   xmlns:inkscape="http://www.inkscape.org/namespaces/inkscape"
   xmlns:sodipodi="http://sodipodi.sourceforge.net/DTD/sodipodi-0.dtd"
   xmlns="http://www.w3.org/2000/svg"
   xmlns:svg="http://www.w3.org/2000/svg"
   xmlns:rdf="http://www.w3.org/1999/02/22-rdf-syntax-ns#"
   xmlns:cc="http://creativecommons.org/ns#"
   xmlns:dc="http://purl.org/dc/elements/1.1/">
  <sodipodi:namedview
     id="namedview21"
     pagecolor="#ffffff"
     bordercolor="#666666"
     borderopacity="1.0"
     inkscape:pageshadow="2"
     inkscape:pageopacity="0.0"
     inkscape:pagecheckerboard="0"
     showgrid="true"
     inkscape:snap-page="true"
     inkscape:zoom="32"
     inkscape:cx="12.9375"
     inkscape:cy="17.609375"
     inkscape:window-width="1920"
     inkscape:window-height="1016"
     inkscape:window-x="0"
     inkscape:window-y="0"
     inkscape:window-maximized="1"
     inkscape:current-layer="svg7384"
     inkscape:showpageshadow="2"
     inkscape:deskcolor="#d1d1d1">
    <inkscape:grid
       type="xygrid"
       id="grid22"
       spacingx="1"
       spacingy="1"
       empspacing="5" />
    <inkscape:grid
       type="xygrid"
       id="grid839"
       dotted="true"
       spacingx="0.5"
       spacingy="0.5"
       empspacing="10" />
  </sodipodi:namedview>
  <metadata
     id="metadata20854">
    <rdf:RDF>
      <cc:Work
         rdf:about="">
        <dc:format>image/svg+xml</dc:format>
        <dc:type
           rdf:resource="http://purl.org/dc/dcmitype/StillImage" />
      </cc:Work>
    </rdf:RDF>
  </metadata>
  <defs
     id="defs7386">
    <linearGradient
       id="linearGradient5606"
       inkscape:swatch="solid">
      <stop
         id="stop5608"
         offset="0"
         style="stop-color:#000000;stop-opacity:1;" />
    </linearGradient>
    <linearGradient
       id="linearGradient4526"
       inkscape:swatch="solid">
      <stop
         id="stop4528"
         offset="0"
         style="stop-color:#ffffff;stop-opacity:1;" />
    </linearGradient>
    <linearGradient
       id="linearGradient3600-4"
       inkscape:swatch="gradient">
      <stop
         id="stop3602-7"
         offset="0"
         style="stop-color:#f4f4f4;stop-opacity:1" />
      <stop
         id="stop3604-6"
         offset="1"
         style="stop-color:#dbdbdb;stop-opacity:1" />
    </linearGradient>
  </defs>
  <path
     id="path874"
     style="color:#000000;fill:#808080;fill-opacity:1"
     d="M 8 2 L 8 3 L 9 3 L 9 2 L 8 2 z M 9 3 L 9 4 L 8 4 L 8 3 L 7 3 C 5.9583374 3 5.001693 3.1146092 4.2421875 3.5703125 C 3.482682 4.0260158 3 4.8750044 3 6 L 3 10 L 3 17 L 3 17.5 C 3 18.549585 3.1583367 19.45323 3.8144531 20.082031 C 4.4705697 20.710834 5.4817473 20.960929 6.9863281 21 L 7 21 L 8 21 L 12.089844 21 L 12.628906 20 L 8 20 L 7.0136719 20 C 7.0090019 19.999879 7.0046553 20.000126 7 20 C 5.6086889 19.962343 4.8722759 19.712491 4.5058594 19.361328 C 4.1382167 19.00899 4 18.450411 4 17.5 L 4 17 L 4 10 C 4 9.1250036 4.2673232 8.7239811 4.7578125 8.4296875 C 5.2483018 8.1353939 6.0416706 8 7 8 L 17 8 C 17.958329 8 18.751697 8.1353939 19.242188 8.4296875 C 19.732675 8.7239811 20 9.1250036 20 10 L 20 15.855469 L 21 17.605469 L 21 10 L 21 6 C 21 4.8750044 20.517322 4.0260158 19.757812 3.5703125 C 18.998309 3.1146092 18.041663 3 17 3 L 16 3 L 16 4 L 15 4 L 15 3 L 9 3 z M 15 3 L 16 3 L 16 2 L 15 2 L 15 3 z " />
  <path
     id="path1329"
     style="color:#000000;fill:#808080;fill-opacity:1;stroke-width:1px;stroke-linejoin:round;-inkscape-stroke:none"
     d="m 17.499424,14 a 0.50005,0.50005 0 0 0 -0.433594,0.251953 l -4,7 a 0.50005,0.50005 0 0 0 0.433594,0.748047 h 8 a 0.50005,0.50005 0 0 0 0.433594,-0.748047 l -4,-7 a 0.50005,0.50005 0 0 0 -0.433594,-0.251953 z m -0.5,2 h 1 v 2 l -0.199219,1 h -0.601562 l -0.199219,-1 z m 0.5,4 a 0.5,0.5 0 0 1 0.5,0.5 0.5,0.5 0 0 1 -0.5,0.5 0.5,0.5 0 0 1 -0.5,-0.5 0.5,0.5 0 0 1 0.5,-0.5 z" />
</svg>

<svg height="24" width="24" xmlns="http://www.w3.org/2000/svg"><path style="color:#000;fill:gray;fill-opacity:1" d="M8 2v1h1V2H8zm1 1v1H8V3H7c-1.042 0-1.998.115-2.758.57C3.482 4.026 3 4.875 3 6v11.5c0 1.05.158 1.953.814 2.582.657.629 1.668.879 3.172.918h5.104l.539-1H7c-1.391-.038-2.128-.288-2.494-.639C4.138 19.01 4 18.451 4 17.5V10c0-.875.267-1.276.758-1.57C5.248 8.135 6.042 8 7 8h10c.958 0 1.752.135 2.242.43.49.294.758.695.758 1.57v5.855l1 1.75V6c0-1.125-.483-1.974-1.242-2.43C18.998 3.115 18.042 3 17 3h-1v1h-1V3H9zm6 0h1V2h-1v1z"/><path style="color:#000;fill:gray;fill-opacity:1;stroke-width:1px;stroke-linejoin:round;-inkscape-stroke:none" d="M17.5 14a.5.5 0 0 0-.434.252l-4 7a.5.5 0 0 0 .433.748h8a.5.5 0 0 0 .434-.748l-4-7a.5.5 0 0 0-.434-.252zm-.5 2h1v2l-.2 1h-.6l-.2-1zm.5 4a.5.5 0 0 1 .5.5.5.5 0 0 1-.5.5.5.5 0 0 1-.5-.5.5.5 0 0 1 .5-.5z"/></svg>
